FINK
CUT[LOET ONS NOCH ENS DRENKEN]
REG[Europa, Mitteleuropa, Deutschland]
KEY[F0804  08  F 2/4]
MEL[  1234  5_+1_
    6666  655_
    5444  3_5_
    2123  1_0_ //] >>
FCT[Geselligkeits -, Trink -, Kirmes - Lied]
